packages/icons/src/components/Icon/assets/default-outline/image.svg

<svg width="20" height="20" viewBox="0 0 20 20" fill="none" xmlns="http://www.w3.org/2000/svg">
<path d="M16.5 13.0986L14.5566 11.1553C14.1962 10.7948 13.6114 10.7948 13.251 11.1553L12.7334 11.6729L13.3184 12.2578C13.6113 12.5507 13.6113 13.0255 13.3184 13.3184C13.0255 13.6111 12.5507 13.6112 12.2578 13.3184L8.42188 9.48242C8.06139 9.12195 7.47669 9.12194 7.11621 9.48242L3.5 13.0986V14.4609C3.5 14.6627 3.66351 14.8271 3.86523 14.8271H16.1348C16.3365 14.8271 16.5 14.6627 16.5 14.4609V13.0986ZM11.7783 6.1875C12.297 6.24018 12.702 6.67841 12.7021 7.21094C12.7021 7.77915 12.2411 8.24023 11.6729 8.24023C11.1402 8.24012 10.702 7.83519 10.6494 7.31641L10.6445 7.21094L10.6494 7.10645C10.7019 6.58756 11.1401 6.18273 11.6729 6.18262L11.7783 6.1875ZM16.5 5.53809C16.4999 5.33641 16.3364 5.17293 16.1348 5.17285H3.86523C3.66356 5.17293 3.50008 5.33641 3.5 5.53809V10.9775L6.05566 8.42188C7.00193 7.47561 8.53615 7.47562 9.48242 8.42188L11.6729 10.6123L12.1904 10.0947C13.1367 9.14849 14.6709 9.14851 15.6172 10.0947L16.5 10.9775V5.53809ZM18 14.4609C18 15.4911 17.1649 16.3271 16.1348 16.3271H3.86523C2.83508 16.3271 2 15.4911 2 14.4609V5.53809C2.00008 4.50798 2.83513 3.67293 3.86523 3.67285H16.1348C17.1649 3.67293 17.9999 4.50798 18 5.53809V14.4609Z" fill="#727683"/>
</svg>

<svg xmlns="http://www.w3.org/2000/svg" width="20" height="20" fill="none" viewBox="0 0 20 20">
    <path fill="#727683" d="m16.5 13.099-1.943-1.944a.923.923 0 0 0-1.306 0l-.518.518.585.585a.75.75 0 1 1-1.06 1.06L8.422 9.482a.923.923 0 0 0-1.306 0L3.5 13.1v1.362c0 .202.164.366.365.366h12.27a.366.366 0 0 0 .365-.366zm-4.722-6.911a1.03 1.03 0 1 1-1.129 1.128l-.004-.105.004-.105a1.03 1.03 0 0 1 1.024-.923zm4.722-.65a.365.365 0 0 0-.365-.365H3.865a.365.365 0 0 0-.365.365v5.44l2.556-2.556a2.423 2.423 0 0 1 3.426 0l2.19 2.19.518-.517a2.423 2.423 0 0 1 3.427 0l.883.882zm1.5 8.923c0 1.03-.835 1.866-1.865 1.866H3.865A1.866 1.866 0 0 1 2 14.461V5.538c0-1.03.835-1.865 1.865-1.865h12.27c1.03 0 1.865.835 1.865 1.865z"/>
</svg>
